!!!OTL: Bohnenlied
!!!ARE: Europa, Mitteleuropa, Deutschland
!!!SCT: A0361
!!!YEM: Copyright 1995, estate of Helmut Schaffrath.
**kern
*ICvox
*Ivox
*M4/2
*k[b-]
*F:
{1cc
2dd
2dd
=1
2g
2cc
2a
2b-
=2
4b-
4a
4g
4f
2g
2g
=3
0f
=4
2r}
{2cc
2cc
2cc
=5
2.dd
4cc
2b-
2g
=6
2b-
2cc
1dd
=7
0cc}
=8
{1cc
2dd
2dd
=9
2a
2cc
2a
2b-
=10
4b-
4a
4g
4f
2g
2g
=11
0f
=12
2r}
{2cc
2cc
2cc
=13
2.dd
4cc
2b-
2g
=14
2b-
2cc
1dd
=15
0cc
=16
2r}
{2cc
2dd
2ee
=17
2.ff
4ee
2dd
2cc
=18
1dd
2r}
{2ff
=19
2cc
2dd
2.ee
4dd
=20
2cc
2b-
1a
=21
1g
2r}
{2cc
=22
2dd
2b-
1cc
=23
2r
2cc
2dd
2b-
=24
1cc
2r}
{2f
=25
2cc
2a
2f
2cc
=26
1dd
1cc}
==
!!!AGN: Romanze, Ballade, Lied
!! Pet. Schoeffer II. 1537 No. 7.
!!!ONB: ESAC (Essen Associative Code) Database: ALTDEU
!!!AMT: simple quadruple
!!!AIN: vox
!!!EED: Helmut Schaffrath
!!!EEV: 1.0
*-
